; generated by AnycubicSlicer 1.3.2 on 2024-04-27 at 04:52:39 UTC

; 

; external perimeters extrusion width = 0.45mm
; perimeters extrusion width = 0.40mm
; infill extrusion width = 0.45mm
; solid infill extrusion width = 0.50mm
; top infill extrusion width = 0.45mm
; first layer extrusion width = 0.40mm

; external perimeters extrusion width = 0.45mm
; perimeters extrusion width = 0.40mm
; infill extrusion width = 0.45mm
; solid infill extrusion width = 0.50mm
; top infill extrusion width = 0.45mm
; first layer extrusion width = 0.40mm

; external perimeters extrusion width = 0.45mm
; perimeters extrusion width = 0.40mm
; infill extrusion width = 0.45mm
; solid infill extrusion width = 0.50mm
; top infill extrusion width = 0.45mm
; first layer extrusion width = 0.40mm

; external perimeters extrusion width = 0.45mm
; perimeters extrusion width = 0.40mm
; infill extrusion width = 0.45mm
; solid infill extrusion width = 0.50mm
; top infill extrusion width = 0.45mm
; first layer extrusion width = 0.40mm

; external perimeters extrusion width = 0.45mm
; perimeters extrusion width = 0.40mm
; infill extrusion width = 0.45mm
; solid infill extrusion width = 0.50mm
; top infill extrusion width = 0.45mm
; first layer extrusion width = 0.40mm

; external perimeters extrusion width = 0.45mm
; perimeters extrusion width = 0.40mm
; infill extrusion width = 0.45mm
; solid infill extrusion width = 0.50mm
; top infill extrusion width = 0.45mm
; first layer extrusion width = 0.40mm

; external perimeters extrusion width = 0.45mm
; perimeters extrusion width = 0.40mm
; infill extrusion width = 0.45mm
; solid infill extrusion width = 0.50mm
; top infill extrusion width = 0.45mm
; first layer extrusion width = 0.40mm

M73 P0 R105
M201 X2500 Y2500 Z800 E2500 ; sets maximum accelerations, mm/sec^2
M203 X300 Y250 Z8 E80 ; sets maximum feedrates, mm / sec
M204 S2500 T2500 ; sets acceleration (S) and retract acceleration (R), mm/sec^2
M205 X15.00 Y10.00 Z2.00 E10.00 ; sets the jerk limits, mm/sec
M205 S0 T0 ; sets the minimum extruding and travel feed rate, mm/sec
;TYPE:Custom
G90 ; use absolute coordinates
M83 ; extruder relative mode
M104 S195 ; set extruder temp
M140 S40 ; set bed temp
M190 S40 ; wait for bed temp
M109 S195 ; wait for extruder temp
G28                                        ; move X/Y/Z to min endstops
G1 Z0.28                                   ; lift nozzle a bit 
G92 E0 
G1 Y3 F1800                                    ; zero the extruded length 
G1 X60  E25 F500                       ; Extrude 25mm of filament in a 5cm line. 
G92 E0                                     ; zero the extruded length again 
G1 E-2 F500                                ; Retract a little 
G1 X70 F4000                              ; Quickly wipe away from the filament line
M117
G21 ; set units to millimeters
G90 ; use absolute coordinates
M82 ; use absolute distances for extrusion
G92 E0
; Filament gcode
M107
;LAYER_CHANGE
;Z:0.2
;HEIGHT:0.2
; BEFORE_LAYER_CHANGE 0 @ 0.2mm
G1 E-2 F4800
G92 E0
G1 Z.2 F7200
; AFTER_LAYER_CHANGE 0 @ 0.2mm
G1 X199.018 Y78.579
G1 E2 F4800
M204 S2000
;TYPE:External perimeter
;WIDTH:0.4
G1 F3000
G1 X199.148 Y78.849 E2.0089
G1 X199.187 Y78.981 E2.01299
G1 X199.223 Y79.303 E2.02261
G1 X199.223 Y116.567 E3.12903
G1 X199.187 Y116.89 E3.13868
G1 X199.151 Y117.016 E3.14257
G1 X199.018 Y117.292 E3.15167
G1 X198.832 Y117.524 E3.1605
G1 X198.6 Y117.71 E3.16933
G1 X198.33 Y117.84 E3.17823
G1 X198.197 Y117.879 E3.18235
G1 X197.875 Y117.915 E3.19197
G1 X135.511 Y117.915 E5.04364
G1 X135.189 Y117.879 E5.05326
G1 X135.063 Y117.842 E5.05716
G1 X134.787 Y117.71 E5.06624
G1 X134.554 Y117.524 E5.07509
G1 X134.363 Y117.285 E5.08417
G1 X134.3 Y117.17 E5.08806
G1 X134.2 Y116.887 E5.09697
G1 X134.163 Y116.567 E5.10653
G1 X134.163 Y79.303 E6.21295
G1 X134.199 Y78.99 E6.2223
G1 X134.297 Y78.709 E6.23114
G1 X134.456 Y78.455 E6.24004
G1 X134.548 Y78.351 E6.24416
G1 X134.794 Y78.155 E6.2535
G1 X134.909 Y78.092 E6.25739
G1 X135.191 Y77.992 E6.26627
G1 X135.512 Y77.955 E6.27586
G1 X198.044 Y77.965 E8.13252
G1 X198.181 Y77.988 E8.13664
G1 X198.47 Y78.089 E8.14573
G1 X198.724 Y78.248 E8.15463
G1 X198.827 Y78.34 E8.15873
G1 X198.98 Y78.532 E8.16602
M204 S2500
G1 X198.873 Y78.841 F7200
G1 X198.714 Y78.77
M204 S2000
;TYPE:Perimeter
G1 F3000
G1 X198.836 Y79.052 E8.17514
G1 X198.866 Y79.323 E8.18324
G1 X198.866 Y116.547 E9.28847
G1 X198.835 Y116.82 E9.29663
G1 X198.713 Y117.1 E9.3057
G1 X198.578 Y117.27 E9.31215
G1 X198.408 Y117.405 E9.3186
G1 X198.126 Y117.527 E9.32772
G1 X197.855 Y117.558 E9.33582
G1 X135.531 Y117.558 E11.1863
G1 X135.259 Y117.527 E11.19443
G1 X134.978 Y117.405 E11.20353
G1 X134.808 Y117.27 E11.20998
G1 X134.661 Y117.085 E11.217
G1 X134.55 Y116.806 E11.22592
G1 X134.52 Y116.546 E11.23369
G1 X134.52 Y79.323 E12.33889
G1 X134.549 Y79.07 E12.34645
G1 X134.621 Y78.864 E12.35293
G1 X134.794 Y78.611 E12.36203
G1 X134.993 Y78.453 E12.36957
G1 X135.272 Y78.342 E12.37849
G1 X135.532 Y78.312 E12.38626
G1 X198.015 Y78.322 E14.24146
G1 X198.314 Y78.412 E14.25073
G1 X198.509 Y78.535 E14.25758
G1 X198.676 Y78.723 E14.26505
M204 S2500
G1 X198.409 Y78.961 F7200
M204 S2000
G1 F3000
G1 X198.483 Y79.114 E14.2701
G1 X198.509 Y79.343 E14.27694
G1 X198.509 Y116.527 E15.38098
G1 X198.483 Y116.755 E15.38779
G1 X198.409 Y116.909 E15.39286
G1 X198.324 Y117.016 E15.39692
G1 X198.217 Y117.101 E15.40098
G1 X198.064 Y117.175 E15.40603
G1 X197.835 Y117.201 E15.41287
G1 X135.551 Y117.201 E17.26216
G1 X135.323 Y117.175 E17.26897
G1 X135.169 Y117.101 E17.27404
G1 X135.062 Y117.016 E17.2781
G1 X134.956 Y116.882 E17.28317
G1 X134.901 Y116.726 E17.28808
G1 X134.877 Y116.525 E17.29409
G1 X134.877 Y79.343 E18.39807
G1 X134.899 Y79.149 E18.40387
G1 X134.944 Y79.02 E18.40793
G1 X135.034 Y78.876 E18.41297
G1 X135.196 Y78.747 E18.41912
G1 X135.353 Y78.692 E18.42406
G1 X135.553 Y78.669 E18.43004
G1 X197.995 Y78.679 E20.28402
G1 X198.158 Y78.736 E20.28915
G1 X198.302 Y78.826 E20.29419
G1 X198.372 Y78.914 E20.29753
M204 S2500
G1 E18.89753 F4800
;WIPE_START
G1 F5760
G1 X198.483 Y79.114 E18.71645
G1 X198.509 Y79.343 E18.53399
G1 X198.509 Y79.642 E18.29753
;WIPE_END
G92 E0
G1 X192.78 Y110.329 F7200
G1 E2 F4800
M204 S2000
;TYPE:External perimeter
G1 F3000
G1 X192.733 Y110.591 E2.0079
G1 X189.42 Y114.13 E2.15184
G1 X189.178 Y114.26 E2.16
G1 X188.876 Y114.231 E2.16901
G1 X188.638 Y114.029 E2.17828
G1 X188.561 Y113.829 E2.18464
G1 X188.569 Y113.628 E2.19061
G1 X189.17 Y111.675 E2.25128
G1 X188.185 Y111.673 E2.28053
G1 X187.978 Y111.584 E2.28722
G1 X187.833 Y111.429 E2.29352
G1 X187.757 Y111.191 E2.30094
G1 X187.803 Y110.929 E2.30884
G1 X191.1 Y107.409 E2.45204
G1 X191.228 Y107.312 E2.45681
G1 X191.448 Y107.258 E2.46354
G1 X191.658 Y107.296 E2.46988
G1 X191.863 Y107.443 E2.47737
G1 X191.97 Y107.66 E2.48455
G1 X191.977 Y107.856 E2.49037
G1 X191.366 Y109.846 E2.55218
G1 X192.352 Y109.848 E2.58146
G1 X192.558 Y109.936 E2.58811
G1 X192.703 Y110.091 E2.59441
G1 X192.761 Y110.272 E2.60005
M204 S2500
G1 X193.017 Y110.449 F7200
G1 X193.13 Y110.253
M204 S2000
;TYPE:Perimeter
G1 F3000
G1 X193.147 Y110.303 E2.60162
G1 X193.067 Y110.758 E2.61534
G1 X189.64 Y114.417 E2.76419
G1 X189.252 Y114.625 E2.77726
G1 X188.731 Y114.576 E2.7928
G1 X188.337 Y114.243 E2.80812
G1 X188.201 Y113.888 E2.81941
G1 X188.214 Y113.567 E2.82895
G1 X188.687 Y112.031 E2.87667
G1 X188.111 Y112.029 E2.89377
G1 X187.769 Y111.883 E2.90481
G1 X187.518 Y111.615 E2.91571
G1 X187.39 Y111.217 E2.92812
G1 X187.47 Y110.762 E2.94184
G1 X190.86 Y107.142 E3.08909
G1 X191.072 Y106.982 E3.09698
G1 X191.437 Y106.894 E3.10813
G1 X191.801 Y106.959 E3.11911
G1 X192.144 Y107.205 E3.13164
G1 X192.324 Y107.571 E3.14375
G1 X192.336 Y107.903 E3.15361
G1 X191.849 Y109.49 E3.2029
G1 X192.425 Y109.491 E3.22
G1 X192.767 Y109.637 E3.23104
G1 X193.018 Y109.905 E3.24194
G1 X193.112 Y110.196 E3.25102
M204 S2500
G1 X193.481 Y110.178 F7200
M204 S2000
G1 F3000
G1 X193.514 Y110.278 E3.25415
G1 X193.4 Y110.924 E3.27363
G1 X189.861 Y114.704 E3.42738
G1 X189.326 Y114.991 E3.44541
G1 X188.586 Y114.921 E3.46748
G1 X188.037 Y114.456 E3.48884
G1 X187.841 Y113.948 E3.50501
G1 X187.859 Y113.507 E3.51811
G1 X188.203 Y112.387 E3.5529
G1 X188.038 Y112.386 E3.5578
G1 X187.559 Y112.181 E3.57327
G1 X187.203 Y111.801 E3.58873
G1 X187.023 Y111.242 E3.60617
G1 X187.137 Y110.596 E3.62565
G1 X190.62 Y106.876 E3.77696
G1 X190.916 Y106.653 E3.78796
G1 X191.426 Y106.529 E3.80354
G1 X191.943 Y106.622 E3.81914
G1 X192.425 Y106.967 E3.83674
G1 X192.678 Y107.482 E3.85378
G1 X192.695 Y107.951 E3.86771
G1 X192.332 Y109.133 E3.90442
G1 X192.499 Y109.134 E3.90938
G1 X192.977 Y109.339 E3.92482
G1 X193.334 Y109.719 E3.9403
G1 X193.463 Y110.121 E3.95284
M204 S2500
G1 E2.55284 F4800
;WIPE_START
G1 F5760
G1 X193.514 Y110.278 E2.42216
G1 X193.411 Y110.862 E1.95284
;WIPE_END
G92 E0
G1 X196.701 Y98.004 F7200
G1 E2 F4800
M204 S2000
;TYPE:External perimeter
G1 F3000
G1 X192.347 Y100.475 E2.14864
G1 X192.048 Y100.299 E2.15894
G1 X192.088 Y94.947 E2.31785
G1 X196.703 Y97.658 E2.47677
G1 X196.701 Y97.944 E2.48526
M204 S2500
G1 X196.95 Y98.317 F7200
G1 X197.056 Y98.213
M204 S2000
;TYPE:Perimeter
G1 F3000
G1 X192.344 Y100.887 E2.64612
G1 X191.69 Y100.503 E2.66864
G1 X191.735 Y94.326 E2.85205
G1 X197.062 Y97.454 E3.03547
G1 X197.057 Y98.153 E3.05622
M204 S2500
G1 X197.412 Y98.421 F7200
M204 S2000
G1 F3000
G1 X192.341 Y101.299 E3.22934
G1 X191.331 Y100.706 E3.26411
G1 X191.383 Y93.705 E3.47198
G1 X197.42 Y97.25 E3.67985
G1 X197.412 Y98.361 E3.71284
M204 S2500
G1 E2.31284 F4800
;WIPE_START
G1 F5760
G1 X196.756 Y98.741 E1.71284
;WIPE_END
G92 E0
G1 X162.327 Y95.72 F7200
G1 E2 F4800
M204 S2000
;TYPE:External perimeter
G1 F3000
G1 X162.11 Y95.555 E2.00809
G1 X161.941 Y95.479 E2.01359
G1 X161.704 Y95.412 E2.0209
G1 X161.073 Y95.319 E2.03984
G1 X160.043 Y95.232 E2.07053
G1 X159.6 Y95.157 E2.08387
G1 X159.303 Y95.075 E2.09302
G1 X159.058 Y94.971 E2.10092
G1 X158.863 Y94.825 E2.10815
G1 X158.727 Y94.525 E2.11793
G1 X158.862 Y94.205 E2.12824
G1 X159.125 Y94.062 E2.13713
G1 X159.347 Y94.006 E2.14393
G1 X159.996 Y93.946 E2.16328
G1 X161.303 Y93.937 E2.20209
G1 X161.899 Y93.962 E2.2198
G1 X162.222 Y93.997 E2.22945
G1 X162.578 Y94.079 E2.2403
G1 X162.833 Y94.196 E2.24863
G1 X163.073 Y94.419 E2.25836
G1 X163.197 Y94.619 E2.26535
G1 X163.637 Y94.171 E2.28399
G1 X163.73 Y94.028 E2.28905
G1 X163.741 Y93.929 E2.29201
G1 X163.683 Y93.715 E2.29859
G1 X163.514 Y93.352 E2.31048
G1 X163.393 Y93.189 E2.31651
G1 X163.323 Y93.141 E2.31903
G1 X163.196 Y93.096 E2.32303
G1 X162.838 Y93.048 E2.33375
G1 X161.325 Y93.02 E2.37868
G1 X160.893 Y92.993 E2.39153
G1 X160.605 Y92.95 E2.40018
G1 X160.318 Y92.853 E2.40917
G1 X160.099 Y92.679 E2.41747
G1 X159.99 Y92.372 E2.42714
G1 X160.051 Y92.044 E2.43705
G1 X160.242 Y91.841 E2.44533
G1 X160.464 Y91.738 E2.4526
G1 X160.783 Y91.671 E2.46228
G1 X161.117 Y91.64 E2.47224
G1 X161.85 Y91.618 E2.49401
G1 X162.897 Y91.623 E2.5251
G1 X163.336 Y91.646 E2.53815
G1 X163.675 Y91.703 E2.54836
G1 X163.957 Y91.812 E2.55734
G1 X164.104 Y91.909 E2.56257
G1 X164.312 Y92.117 E2.5713
G1 X164.494 Y92.38 E2.5808
G1 X164.846 Y92.96 E2.60094
G1 X165.065 Y93.238 E2.61145
G1 X165.13 Y93.29 E2.61392
G1 X165.235 Y93.319 E2.61715
G1 X165.314 Y93.311 E2.61951
G1 X165.705 Y93.196 E2.63161
G1 X165.819 Y93.137 E2.63542
G1 X165.623 Y92.703 E2.64956
G1 X164.577 Y90.834 E2.71315
G1 X163.15 Y90.765 E2.75557
G1 X162.23 Y90.67 E2.78303
G1 X161.912 Y90.61 E2.79264
G1 X161.582 Y90.509 E2.80289
G1 X161.357 Y90.356 E2.81097
G1 X161.245 Y90.071 E2.82006
G1 X161.398 Y89.828 E2.82859
G1 X161.634 Y89.706 E2.83648
G1 X161.896 Y89.648 E2.84445
G1 X162.621 Y89.597 E2.86603
G1 X163.185 Y89.6 E2.88278
G1 X165.499 Y89.696 E2.95154
G1 X166.357 Y91.183 E3.00251
G1 X166.776 Y91.87 E3.0264
G1 X167.004 Y92.204 E3.03841
G1 X167.277 Y91.81 E3.05264
G1 X168.518 Y89.695 E3.12545
G1 X171.036 Y89.596 E3.20027
G1 X171.662 Y89.606 E3.21886
G1 X172.105 Y89.646 E3.23207
G1 X172.439 Y89.726 E3.24227
G1 X172.59 Y89.81 E3.2474
G1 X172.796 Y90.076 E3.25739
G1 X172.604 Y90.412 E3.26888
G1 X172.363 Y90.535 E3.27691
G1 X172.077 Y90.616 E3.28574
G1 X171.629 Y90.693 E3.29924
G1 X170.863 Y90.765 E3.32208
G1 X169.438 Y90.834 E3.36444
G1 X168.332 Y92.807 E3.4316
G1 X168.181 Y93.144 E3.44256
G1 X168.531 Y93.273 E3.45364
G1 X168.732 Y93.302 E3.45967
G1 X168.818 Y93.279 E3.46231
G1 X168.884 Y93.233 E3.4647
G1 X169.022 Y93.087 E3.47066
G1 X169.587 Y92.23 E3.50114
G1 X169.783 Y91.997 E3.51018
G1 X170.026 Y91.816 E3.51918
G1 X170.323 Y91.702 E3.52863
G1 X170.758 Y91.638 E3.54168
G1 X171.461 Y91.618 E3.56256
G1 X172.624 Y91.627 E3.59709
G1 X173.283 Y91.678 E3.61672
G1 X173.627 Y91.766 E3.62726
G1 X173.798 Y91.861 E3.63307
G1 X173.961 Y92.045 E3.64037
G1 X174.021 Y92.312 E3.6485
G1 X173.988 Y92.53 E3.65505
G1 X173.872 Y92.723 E3.66174
G1 X173.672 Y92.866 E3.66904
G1 X173.362 Y92.959 E3.67865
G1 X172.961 Y93.007 E3.69064
G1 X171.467 Y93.035 E3.73501
G1 X171.038 Y93.059 E3.74777
G1 X170.803 Y93.099 E3.75485
G1 X170.634 Y93.171 E3.7603
G1 X170.572 Y93.228 E3.7628
G1 X170.499 Y93.336 E3.76667
G1 X170.371 Y93.604 E3.77549
G1 X170.273 Y93.921 E3.78534
G1 X170.275 Y93.991 E3.78742
G1 X170.344 Y94.149 E3.79254
G1 X170.709 Y94.556 E3.80877
G1 X171.012 Y94.322 E3.82014
G1 X171.365 Y94.167 E3.83159
G1 X171.791 Y94.061 E3.84462
G1 X172.418 Y93.969 E3.86344
G1 X173.29 Y93.913 E3.88938
G1 X174.151 Y93.935 E3.91495
G1 X174.747 Y94.028 E3.93286
G1 X174.986 Y94.117 E3.94043
G1 X175.222 Y94.31 E3.94948
G1 X175.266 Y94.662 E3.96001
G1 X175.048 Y94.916 E3.96995
G1 X174.789 Y95.048 E3.97858
G1 X174.479 Y95.141 E3.98819
G1 X173.843 Y95.245 E4.00732
G1 X172.552 Y95.347 E4.04577
G1 X172.152 Y95.428 E4.05789
G1 X171.91 Y95.536 E4.06576
G1 X171.806 Y95.649 E4.07032
G1 X171.757 Y95.824 E4.07572
G1 X171.768 Y96.143 E4.0852
G1 X171.855 Y96.581 E4.09846
G1 X172.094 Y97.448 E4.12516
G1 X172.163 Y97.878 E4.13809
G1 X172.177 Y98.176 E4.14695
G1 X172.125 Y98.766 E4.16454
G1 X171.822 Y100.133 E4.20611
G1 X171.785 Y100.381 E4.21355
G1 X171.773 Y100.624 E4.22077
G1 X171.797 Y100.806 E4.22622
G1 X171.824 Y100.872 E4.22834
G1 X171.9 Y100.954 E4.23166
G1 X172.033 Y101.022 E4.2361
G1 X172.259 Y101.078 E4.24301
G1 X172.58 Y101.115 E4.2526
G1 X174.097 Y101.15 E4.29765
G1 X174.685 Y101.213 E4.31521
G1 X174.979 Y101.31 E4.3244
G1 X175.192 Y101.473 E4.33236
G1 X175.313 Y101.776 E4.34205
G1 X175.248 Y102.098 E4.3518
G1 X174.986 Y102.31 E4.36181
G1 X174.742 Y102.409 E4.36963
G1 X174.162 Y102.528 E4.38721
G1 X173.641 Y102.574 E4.40274
G1 X173.127 Y102.586 E4.41801
G1 X172.292 Y102.541 E4.44284
G1 X171.691 Y102.443 E4.46092
G1 X171.255 Y102.293 E4.47461
G1 X171.017 Y102.12 E4.48335
G1 X170.841 Y101.797 E4.49427
G1 X170.711 Y101.838 E4.49832
G1 X170.473 Y102.004 E4.50694
G1 X170.245 Y102.246 E4.51681
G1 X170.195 Y102.351 E4.52026
G1 X170.232 Y102.478 E4.52419
G1 X170.453 Y102.907 E4.53852
G1 X170.597 Y103.096 E4.54557
G1 X170.759 Y103.212 E4.55149
G1 X170.901 Y103.265 E4.55599
G1 X171.282 Y103.336 E4.5675
G1 X172.701 Y103.437 E4.60974
G1 X173.122 Y103.487 E4.62233
G1 X173.404 Y103.545 E4.63088
G1 X173.686 Y103.648 E4.63979
G1 X173.913 Y103.824 E4.64832
G1 X174.026 Y104.093 E4.65698
G1 X173.964 Y104.435 E4.6673
G1 X173.77 Y104.638 E4.67564
G1 X173.546 Y104.741 E4.68296
G1 X173.225 Y104.809 E4.6927
G1 X172.89 Y104.84 E4.70269
G1 X172.162 Y104.862 E4.72432
G1 X171.217 Y104.859 E4.75238
G1 X170.693 Y104.835 E4.76795
G1 X170.364 Y104.782 E4.77784
G1 X170.197 Y104.731 E4.78302
G1 X169.959 Y104.607 E4.79099
G1 X169.714 Y104.383 E4.80085
G1 X169.526 Y104.123 E4.81038
G1 X169.145 Y103.518 E4.83161
G1 X168.896 Y103.218 E4.84319
G1 X168.829 Y103.162 E4.84578
G1 X168.734 Y103.109 E4.84901
G1 X168.596 Y103.089 E4.85315
G1 X168.399 Y103.152 E4.85929
G1 X168.221 Y103.258 E4.86544
G1 X168.304 Y103.518 E4.87354
G1 X168.538 Y104.007 E4.88964
G1 X169.382 Y105.509 E4.94079
G1 X171.22 Y105.513 E4.99536
G1 X171.999 Y105.565 E5.01854
G1 X172.342 Y105.652 E5.02905
G1 X172.601 Y105.827 E5.03833
G1 X172.708 Y106.029 E5.04512
G1 X172.733 Y106.22 E5.05084
G1 X172.698 Y106.432 E5.05722
G1 X172.578 Y106.621 E5.06387
