; generated by AnycubicSlicer 1.3.2 on 2024-04-26 at 21:59:25 UTC

; 

; external perimeters extrusion width = 0.45mm
; perimeters extrusion width = 0.40mm
; infill extrusion width = 0.45mm
; solid infill extrusion width = 0.50mm
; top infill extrusion width = 0.45mm
; support material extrusion width = 0.42mm
; first layer extrusion width = 0.56mm

M73 P0 R124
M201 X2500 Y2500 Z800 E2500 ; sets maximum accelerations, mm/sec^2
M203 X300 Y250 Z8 E80 ; sets maximum feedrates, mm / sec
M204 S2500 T2500 ; sets acceleration (S) and retract acceleration (R), mm/sec^2
M205 X15.00 Y10.00 Z2.00 E10.00 ; sets the jerk limits, mm/sec
M205 S0 T0 ; sets the minimum extruding and travel feed rate, mm/sec
;TYPE:Custom
G90 ; use absolute coordinates
M83 ; extruder relative mode
M104 S195 ; set extruder temp
M140 S40 ; set bed temp
M190 S40 ; wait for bed temp
M109 S195 ; wait for extruder temp
G28                                        ; move X/Y/Z to min endstops
G1 Z0.28                                   ; lift nozzle a bit 
G92 E0 
G1 Y3 F1800                                    ; zero the extruded length 
G1 X60  E25 F500                       ; Extrude 25mm of filament in a 5cm line. 
G92 E0                                     ; zero the extruded length again 
G1 E-2 F500                                ; Retract a little 
G1 X70 F4000                              ; Quickly wipe away from the filament line
M117
G21 ; set units to millimeters
G90 ; use absolute coordinates
M82 ; use absolute distances for extrusion
G92 E0
; Filament gcode
M107
;LAYER_CHANGE
;Z:0.28
;HEIGHT:0.28
; BEFORE_LAYER_CHANGE 0 @ 0.28mm
G1 E-2 F4800
G92 E0
G1 Z.28 F7200
; AFTER_LAYER_CHANGE 0 @ 0.28mm
G1 X59.552 Y56.174
G1 E2 F4800
M204 S2000
;TYPE:Support material interface
;WIDTH:0.42
G1 F3000
G1 X58.71 Y57.015 E2.04986
G1 X58.458 Y57.015 E2.06042
G1 X57.883 Y56.44 E2.09449
G1 X58.851 Y55.472 E2.15185
G1 X59.552 Y56.174 E2.19342
M204 S2500
G1 X60.085 Y56.174 F7200
M204 S2000
G1 F3000
G1 X58.867 Y57.392 E2.26559
G1 X58.753 Y57.392 E2.27037
G1 X58.527 Y57.618 E2.28376
G1 X57.349 Y56.44 E2.35356
G1 X58.851 Y54.939 E2.44253
G1 X60.085 Y56.174 E2.51568
M204 S2500
G1 X60.373 Y56.983 F7200
M204 S2000
G1 F3000
G1 X57.854 Y59.501 E2.66491
M204 S2500
G1 E1.26491 F4800
;WIPE_START
G1 F5760
G1 X58.39 Y58.965 E.66491
;WIPE_END
G92 E0
G1 X57.888 Y60.584 F7200
G1 E2 F4800
M204 S2000
G1 F3000
G1 X57.626 Y60.785 E2.01384
G1 X57.349 Y60.509 E2.03022
G1 X57.664 Y60.195 E2.04885
G1 X57.888 Y60.584 E2.06766
M204 S2500
G1 X58.314 Y60.79 F7200
M204 S2000
G1 F3000
G1 X57.706 Y61.398 E2.10369
G1 X56.816 Y60.509 E2.15639
G1 X57.706 Y59.62 E2.20909
G1 X57.85 Y59.764 E2.21762
G1 X58.236 Y60.432 E2.24994
G1 X58.314 Y60.477 E2.25371
G1 X58.314 Y60.79 E2.26682
M204 S2500
G1 X57.854 Y61.517 F7200
M204 S2000
G1 F3000
G1 X58.482 Y62.144 E2.304
G1 X58.566 Y61.998 E2.31106
G1 X59.196 Y61.998 E2.33746
G1 X59.196 Y59.786 E2.43014
G1 X58.881 Y59.786 E2.44334
G1 X58.566 Y59.241 E2.46971
G1 X58.881 Y58.695 E2.49612
G1 X59.196 Y58.695 E2.50932
G1 X59.196 Y58.606 E2.51305
G1 X59.477 Y58.324 E2.52973
G1 X60.219 Y58.324 E2.56082
G1 X60.534 Y57.779 E2.58719
G1 X61.164 Y57.779 E2.61359
G1 X61.479 Y58.324 E2.63996
G1 X62.109 Y58.324 E2.66636
G1 X62.339 Y57.925 E2.68566
G1 X61.397 Y56.983 E2.74148
M204 S2500
G1 X61.279 Y56.834 F7200
M204 S2000
G1 F3000
G1 X58.851 Y54.406 E2.88534
G1 X56.816 Y56.44 E3.00589
G1 X58.584 Y58.208 E3.11065
G1 X58.641 Y58.151 E3.11403
G1 X58.641 Y58.038 E3.11876
G1 X58.909 Y57.769 E3.13467
G1 X59.023 Y57.769 E3.13945
G1 X60.224 Y56.568 E3.21061
G1 X60.554 Y56.897 E3.23013
G1 X61.216 Y56.897 E3.25787
G1 X61.279 Y56.834 E3.2616
M204 S2500
G1 E1.8616 F4800
;WIPE_START
G1 F5760
G1 X61.216 Y56.897 E1.79107
G1 X60.554 Y56.897 E1.26699
G1 X60.549 Y56.892 E1.2616
;WIPE_END
G92 E0
G1 X64.442 Y56.983 F7200
G1 E2 F4800
M204 S2000
G1 F3000
G1 X63.27 Y58.154 E2.06941
G1 X63.369 Y58.324 E2.07765
G1 X64.288 Y58.324 E2.11615
G1 X64.603 Y57.779 E2.14252
G1 X65.233 Y57.779 E2.16892
G1 X65.548 Y58.324 E2.19529
G1 X66.178 Y58.324 E2.22169
G1 X66.408 Y57.925 E2.24099
G1 X65.466 Y56.983 E2.29681
M204 S2500
G1 X65.348 Y56.834 F7200
M204 S2000
G1 F3000
G1 X64.954 Y56.44 E2.32016
G1 X64.56 Y56.834 E2.34351
G1 X64.623 Y56.897 E2.34724
G1 X65.285 Y56.897 E2.37498
G1 X65.348 Y56.834 E2.37871
M204 S2500
G1 E.97871 F4800
;WIPE_START
G1 F5760
G1 X65.285 Y56.897 E.90818
G1 X64.623 Y56.897 E.3841
G1 X64.618 Y56.892 E.37871
;WIPE_END
G92 E0
G1 X68.511 Y56.983 F7200
G1 E2 F4800
M204 S2000
G1 F3000
G1 X67.339 Y58.154 E2.06941
G1 X67.438 Y58.324 E2.07765
G1 X68.357 Y58.324 E2.11615
G1 X68.672 Y57.779 E2.14252
G1 X69.302 Y57.779 E2.16892
G1 X69.617 Y58.324 E2.19529
G1 X70.247 Y58.324 E2.22169
G1 X70.477 Y57.925 E2.24099
G1 X69.535 Y56.983 E2.29681
M204 S2500
G1 X69.354 Y56.897 F7200
M204 S2000
G1 F3000
G1 X68.692 Y56.897 E2.32455
G1 X68.629 Y56.834 E2.32828
G1 X69.023 Y56.44 E2.35163
G1 X69.417 Y56.834 E2.37498
G1 X69.354 Y56.897 E2.37871
M204 S2500
G1 E.97871 F4800
;WIPE_START
G1 F5760
G1 X69.417 Y56.834 E.90818
G1 X69.023 Y56.44 E.46706
G1 X68.944 Y56.519 E.37871
;WIPE_END
G92 E0
G1 X72.579 Y56.983 F7200
G1 E2 F4800
M204 S2000
G1 F3000
G1 X71.408 Y58.154 E2.06938
G1 X71.507 Y58.324 E2.07762
G1 X72.425 Y58.324 E2.11608
G1 X72.74 Y57.779 E2.14245
G1 X73.37 Y57.779 E2.16885
G1 X73.685 Y58.324 E2.19522
G1 X74.315 Y58.324 E2.22162
G1 X74.546 Y57.925 E2.24094
G1 X73.604 Y56.983 E2.29676
M204 S2500
G1 X73.422 Y56.897 F7200
M204 S2000
G1 F3000
G1 X73.485 Y56.834 E2.30049
G1 X73.091 Y56.44 E2.32384
G1 X72.697 Y56.834 E2.34719
G1 X72.761 Y56.897 E2.35095
G1 X73.422 Y56.897 E2.37864
M204 S2500
G1 E.97864 F4800
;WIPE_START
G1 F5760
G1 X72.761 Y56.897 E.45535
G1 X72.697 Y56.834 E.38425
G1 X72.702 Y56.829 E.37864
;WIPE_END
G92 E0
G1 X76.648 Y56.983 F7200
G1 E2 F4800
M204 S2000
G1 F3000
G1 X75.477 Y58.154 E2.06938
G1 X75.575 Y58.324 E2.0776
G1 X76.494 Y58.324 E2.1161
G1 X76.809 Y57.779 E2.14247
G1 X77.439 Y57.779 E2.16887
G1 X77.754 Y58.324 E2.19524
G1 X78.384 Y58.324 E2.22164
G1 X78.615 Y57.925 E2.24096
G1 X77.672 Y56.983 E2.2968
M204 S2500
G1 X77.491 Y56.897 F7200
M204 S2000
G1 F3000
G1 X76.829 Y56.897 E2.32454
G1 X76.766 Y56.834 E2.32827
G1 X77.16 Y56.44 E2.35162
G1 X77.554 Y56.834 E2.37497
G1 X77.491 Y56.897 E2.3787
M204 S2500
G1 E.9787 F4800
;WIPE_START
G1 F5760
G1 X77.554 Y56.834 E.90817
G1 X77.16 Y56.44 E.46705
G1 X77.081 Y56.519 E.3787
;WIPE_END
G92 E0
G1 X80.717 Y56.983 F7200
G1 E2 F4800
M204 S2000
G1 F3000
G1 X79.546 Y58.154 E2.06938
G1 X79.644 Y58.324 E2.0776
G1 X80.563 Y58.324 E2.1161
G1 X80.878 Y57.779 E2.14247
G1 X81.508 Y57.779 E2.16887
G1 X81.823 Y58.324 E2.19524
G1 X82.453 Y58.324 E2.22164
G1 X82.684 Y57.925 E2.24096
G1 X81.741 Y56.983 E2.2968
M204 S2500
G1 X81.56 Y56.897 F7200
M204 S2000
G1 F3000
G1 X80.898 Y56.897 E2.32454
G1 X80.835 Y56.834 E2.32827
G1 X81.229 Y56.44 E2.35162
G1 X81.623 Y56.834 E2.37497
G1 X81.56 Y56.897 E2.3787
M204 S2500
G1 E.9787 F4800
;WIPE_START
G1 F5760
G1 X81.623 Y56.834 E.90817
G1 X81.229 Y56.44 E.46705
G1 X81.15 Y56.519 E.3787
;WIPE_END
G92 E0
G1 X84.786 Y56.983 F7200
G1 E2 F4800
M204 S2000
G1 F3000
G1 X83.614 Y58.154 E2.06941
G1 X83.713 Y58.324 E2.07765
G1 X84.632 Y58.324 E2.11615
G1 X84.947 Y57.779 E2.14252
G1 X85.577 Y57.779 E2.16892
G1 X85.892 Y58.324 E2.19529
G1 X86.522 Y58.324 E2.22169
G1 X86.752 Y57.925 E2.24099
G1 X85.81 Y56.983 E2.29681
M204 S2500
G1 X85.629 Y56.897 F7200
M204 S2000
G1 F3000
G1 X84.967 Y56.897 E2.32455
G1 X84.904 Y56.834 E2.32828
G1 X85.298 Y56.44 E2.35163
G1 X85.692 Y56.834 E2.37498
G1 X85.629 Y56.897 E2.37871
M204 S2500
G1 E.97871 F4800
;WIPE_START
G1 F5760
G1 X85.692 Y56.834 E.90818
G1 X85.298 Y56.44 E.46706
G1 X85.219 Y56.519 E.37871
;WIPE_END
G92 E0
G1 X88.855 Y56.983 F7200
G1 E2 F4800
M204 S2000
G1 F3000
G1 X87.683 Y58.154 E2.06941
G1 X87.782 Y58.324 E2.07765
G1 X88.701 Y58.324 E2.11615
G1 X89.016 Y57.779 E2.14252
G1 X89.646 Y57.779 E2.16892
G1 X89.961 Y58.324 E2.19529
G1 X90.591 Y58.324 E2.22169
G1 X90.821 Y57.925 E2.24099
G1 X89.879 Y56.983 E2.29681
M204 S2500
G1 X89.698 Y56.897 F7200
M204 S2000
G1 F3000
G1 X89.036 Y56.897 E2.32455
G1 X88.973 Y56.834 E2.32828
G1 X89.367 Y56.44 E2.35163
G1 X89.761 Y56.834 E2.37498
G1 X89.698 Y56.897 E2.37871
M204 S2500
G1 E.97871 F4800
;WIPE_START
G1 F5760
G1 X89.761 Y56.834 E.90818
G1 X89.367 Y56.44 E.46706
G1 X89.288 Y56.519 E.37871
;WIPE_END
G92 E0
G1 X92.923 Y56.983 F7200
G1 E2 F4800
M204 S2000
G1 F3000
G1 X91.752 Y58.154 E2.06938
G1 X91.851 Y58.324 E2.07762
G1 X92.769 Y58.324 E2.11608
G1 X93.084 Y57.779 E2.14245
G1 X93.714 Y57.779 E2.16885
G1 X94.029 Y58.324 E2.19522
G1 X94.659 Y58.324 E2.22162
G1 X94.89 Y57.925 E2.24094
G1 X93.948 Y56.983 E2.29676
M204 S2500
G1 X93.766 Y56.897 F7200
M204 S2000
G1 F3000
G1 X93.829 Y56.834 E2.30049
G1 X93.435 Y56.44 E2.32384
G1 X93.041 Y56.834 E2.34719
G1 X93.105 Y56.897 E2.35095
G1 X93.766 Y56.897 E2.37864
M204 S2500
G1 E.97864 F4800
;WIPE_START
G1 F5760
G1 X93.105 Y56.897 E.45535
G1 X93.041 Y56.834 E.38425
G1 X93.046 Y56.829 E.37864
;WIPE_END
G92 E0
G1 X96.992 Y56.983 F7200
G1 E2 F4800
M204 S2000
G1 F3000
G1 X95.821 Y58.154 E2.06938
G1 X95.919 Y58.324 E2.0776
G1 X96.838 Y58.324 E2.1161
G1 X97.153 Y57.779 E2.14247
G1 X97.783 Y57.779 E2.16887
G1 X98.098 Y58.324 E2.19524
G1 X98.728 Y58.324 E2.22164
G1 X98.959 Y57.925 E2.24096
G1 X98.016 Y56.983 E2.2968
M204 S2500
G1 X97.835 Y56.897 F7200
M204 S2000
G1 F3000
G1 X97.173 Y56.897 E2.32454
G1 X97.11 Y56.834 E2.32827
G1 X97.504 Y56.44 E2.35162
G1 X97.898 Y56.834 E2.37497
G1 X97.835 Y56.897 E2.3787
M204 S2500
G1 E.9787 F4800
;WIPE_START
G1 F5760
G1 X97.898 Y56.834 E.90817
G1 X97.504 Y56.44 E.46705
G1 X97.425 Y56.519 E.3787
;WIPE_END
G92 E0
G1 X101.061 Y56.983 F7200
G1 E2 F4800
M204 S2000
G1 F3000
G1 X99.89 Y58.154 E2.06938
G1 X99.988 Y58.324 E2.0776
G1 X100.907 Y58.324 E2.1161
G1 X101.222 Y57.779 E2.14247
G1 X101.852 Y57.779 E2.16887
G1 X102.167 Y58.324 E2.19524
G1 X102.797 Y58.324 E2.22164
G1 X103.028 Y57.925 E2.24096
G1 X102.085 Y56.983 E2.2968
M204 S2500
G1 X101.904 Y56.897 F7200
M204 S2000
G1 F3000
G1 X101.967 Y56.834 E2.30053
G1 X101.573 Y56.44 E2.32388
G1 X101.179 Y56.834 E2.34723
G1 X101.242 Y56.897 E2.35096
G1 X101.904 Y56.897 E2.3787
M204 S2500
G1 E.9787 F4800
;WIPE_START
G1 F5760
G1 X101.242 Y56.897 E.45462
G1 X101.179 Y56.834 E.38409
G1 X101.184 Y56.829 E.3787
;WIPE_END
G92 E0
G1 X105.13 Y56.983 F7200
G1 E2 F4800
M204 S2000
G1 F3000
G1 X103.959 Y58.154 E2.06938
G1 X104.057 Y58.324 E2.0776
G1 X104.976 Y58.324 E2.1161
G1 X105.291 Y57.779 E2.14247
G1 X105.921 Y57.779 E2.16887
G1 X106.236 Y58.324 E2.19524
G1 X106.866 Y58.324 E2.22164
G1 X107.096 Y57.925 E2.24094
G1 X106.154 Y56.983 E2.29676
M204 S2500
G1 X105.973 Y56.897 F7200
M204 S2000
G1 F3000
G1 X106.036 Y56.834 E2.30049
G1 X105.642 Y56.44 E2.32384
G1 X105.248 Y56.834 E2.34719
G1 X105.311 Y56.897 E2.35092
G1 X105.973 Y56.897 E2.37866
M204 S2500
G1 E.97866 F4800
;WIPE_START
G1 F5760
G1 X105.311 Y56.897 E.45458
G1 X105.248 Y56.834 E.38405
G1 X105.253 Y56.829 E.37866
;WIPE_END
G92 E0
G1 X109.199 Y56.983 F7200
G1 E2 F4800
M204 S2000
G1 F3000
G1 X108.027 Y58.154 E2.06941
G1 X108.126 Y58.324 E2.07765
G1 X109.045 Y58.324 E2.11615
G1 X109.36 Y57.779 E2.14252
G1 X109.99 Y57.779 E2.16892
G1 X110.305 Y58.324 E2.19529
G1 X110.935 Y58.324 E2.22169
G1 X111.165 Y57.925 E2.24099
G1 X110.223 Y56.983 E2.29681
M204 S2500
G1 X110.042 Y56.897 F7200
M204 S2000
G1 F3000
G1 X109.38 Y56.897 E2.32455
G1 X109.317 Y56.834 E2.32828
G1 X109.711 Y56.44 E2.35163
G1 X110.105 Y56.834 E2.37498
G1 X110.042 Y56.897 E2.37871
M204 S2500
G1 E.97871 F4800
;WIPE_START
G1 F5760
G1 X110.105 Y56.834 E.90818
G1 X109.711 Y56.44 E.46706
G1 X109.632 Y56.519 E.37871
;WIPE_END
G92 E0
G1 X113.267 Y56.983 F7200
G1 E2 F4800
M204 S2000
G1 F3000
G1 X112.096 Y58.154 E2.06938
G1 X112.195 Y58.324 E2.07762
G1 X113.113 Y58.324 E2.11608
G1 X113.428 Y57.779 E2.14245
G1 X114.058 Y57.779 E2.16885
G1 X114.373 Y58.324 E2.19522
G1 X115.003 Y58.324 E2.22162
G1 X115.234 Y57.925 E2.24094
G1 X114.292 Y56.983 E2.29676
M204 S2500
G1 X114.11 Y56.897 F7200
M204 S2000
G1 F3000
G1 X114.174 Y56.834 E2.30052
G1 X113.78 Y56.44 E2.32387
G1 X113.386 Y56.834 E2.34722
G1 X113.449 Y56.897 E2.35095
G1 X114.11 Y56.897 E2.37864
M204 S2500
G1 E.97864 F4800
;WIPE_START
G1 F5760
G1 X113.449 Y56.897 E.45535
G1 X113.386 Y56.834 E.38482
G1 X113.392 Y56.828 E.37864
;WIPE_END
G92 E0
G1 X117.336 Y56.983 F7200
G1 E2 F4800
M204 S2000
G1 F3000
G1 X116.165 Y58.154 E2.06938
G1 X116.263 Y58.324 E2.0776
G1 X117.182 Y58.324 E2.1161
G1 X117.497 Y57.779 E2.14247
G1 X118.127 Y57.779 E2.16887
G1 X118.442 Y58.324 E2.19524
G1 X119.072 Y58.324 E2.22164
G1 X119.303 Y57.925 E2.24096
G1 X118.36 Y56.983 E2.2968
M204 S2500
G1 X118.179 Y56.897 F7200
M204 S2000
G1 F3000
G1 X117.517 Y56.897 E2.32454
G1 X117.454 Y56.834 E2.32827
G1 X117.848 Y56.44 E2.35162
G1 X118.242 Y56.834 E2.37497
G1 X118.179 Y56.897 E2.3787
M204 S2500
G1 E.9787 F4800
;WIPE_START
G1 F5760
G1 X118.242 Y56.834 E.90817
G1 X117.848 Y56.44 E.46705
G1 X117.769 Y56.519 E.3787
;WIPE_END
G92 E0
G1 X121.405 Y56.983 F7200
G1 E2 F4800
M204 S2000
G1 F3000
G1 X120.234 Y58.154 E2.06938
G1 X120.332 Y58.324 E2.0776
G1 X121.251 Y58.324 E2.1161
G1 X121.566 Y57.779 E2.14247
G1 X122.196 Y57.779 E2.16887
G1 X122.511 Y58.324 E2.19524
G1 X123.141 Y58.324 E2.22164
G1 X123.372 Y57.925 E2.24096
G1 X122.429 Y56.983 E2.2968
M204 S2500
G1 X122.248 Y56.897 F7200
M204 S2000
G1 F3000
G1 X122.311 Y56.834 E2.30053
G1 X121.917 Y56.44 E2.32388
G1 X121.523 Y56.834 E2.34723
G1 X121.586 Y56.897 E2.35096
G1 X122.248 Y56.897 E2.3787
M204 S2500
G1 E.9787 F4800
;WIPE_START
G1 F5760
G1 X121.586 Y56.897 E.45462
G1 X121.523 Y56.834 E.38409
G1 X121.528 Y56.829 E.3787
;WIPE_END
G92 E0
G1 X125.474 Y56.983 F7200
G1 E2 F4800
M204 S2000
G1 F3000
G1 X124.303 Y58.154 E2.06938
G1 X124.401 Y58.324 E2.0776
G1 X125.32 Y58.324 E2.1161
G1 X125.635 Y57.779 E2.14247
G1 X126.265 Y57.779 E2.16887
G1 X126.58 Y58.324 E2.19524
G1 X127.21 Y58.324 E2.22164
G1 X127.44 Y57.925 E2.24094
G1 X126.498 Y56.983 E2.29676
M204 S2500
G1 X125.655 Y56.897 F7200
M204 S2000
G1 F3000
G1 X125.592 Y56.834 E2.30049
G1 X125.986 Y56.44 E2.32384
G1 X126.38 Y56.834 E2.34719
M73 P0 R123
G1 X126.317 Y56.897 E2.35092
G1 X125.655 Y56.897 E2.37866
M204 S2500
G1 E.97866 F4800
;WIPE_START
G1 F5760
G1 X126.317 Y56.897 E.45458
G1 X126.38 Y56.834 E.38405
G1 X126.375 Y56.829 E.37866
;WIPE_END
G92 E0
G1 X129.543 Y56.983 F7200
G1 E2 F4800
M204 S2000
G1 F3000
G1 X128.371 Y58.154 E2.06941
G1 X128.47 Y58.324 E2.07765
G1 X129.389 Y58.324 E2.11615
G1 X129.704 Y57.779 E2.14252
G1 X130.334 Y57.779 E2.16892
G1 X130.649 Y58.324 E2.19529
G1 X131.279 Y58.324 E2.22169
G1 X131.509 Y57.925 E2.24099
G1 X130.567 Y56.983 E2.29681
M204 S2500
G1 X129.724 Y56.897 F7200
M204 S2000
G1 F3000
G1 X129.661 Y56.834 E2.30054
G1 X130.055 Y56.44 E2.32389
G1 X130.449 Y56.834 E2.34724
G1 X130.386 Y56.897 E2.35097
G1 X129.724 Y56.897 E2.37871
M204 S2500
G1 E.97871 F4800
;WIPE_START
G1 F5760
G1 X130.386 Y56.897 E.45463
G1 X130.449 Y56.834 E.3841
G1 X130.444 Y56.829 E.37871
;WIPE_END
G92 E0
G1 X133.611 Y56.983 F7200
G1 E2 F4800
M204 S2000
G1 F3000
G1 X132.44 Y58.154 E2.06938
G1 X132.539 Y58.324 E2.07762
G1 X133.457 Y58.324 E2.11608
G1 X133.772 Y57.779 E2.14245
G1 X134.402 Y57.779 E2.16885
G1 X134.717 Y58.324 E2.19522
G1 X135.347 Y58.324 E2.22162
G1 X135.578 Y57.925 E2.24094
G1 X134.636 Y56.983 E2.29676
M204 S2500
G1 X133.793 Y56.897 F7200
M204 S2000
G1 F3000
G1 X133.73 Y56.834 E2.30049
G1 X134.124 Y56.44 E2.32384
G1 X134.518 Y56.834 E2.34719
G1 X134.454 Y56.897 E2.35095
G1 X133.793 Y56.897 E2.37864
M204 S2500
G1 E.97864 F4800
;WIPE_START
G1 F5760
G1 X134.454 Y56.897 E.45535
G1 X134.518 Y56.834 E.38425
G1 X134.513 Y56.829 E.37864
;WIPE_END
G92 E0
G1 X137.68 Y56.983 F7200
G1 E2 F4800
M204 S2000
G1 F3000
G1 X136.509 Y58.154 E2.06938
G1 X136.607 Y58.324 E2.0776
G1 X137.526 Y58.324 E2.1161
G1 X137.841 Y57.779 E2.14247
G1 X138.471 Y57.779 E2.16887
G1 X138.786 Y58.324 E2.19524
G1 X139.416 Y58.324 E2.22164
G1 X139.647 Y57.925 E2.24096
G1 X138.704 Y56.983 E2.2968
M204 S2500
G1 X137.861 Y56.897 F7200
M204 S2000
G1 F3000
